X:1
T:Title
%%score { 1 | ( 2 3 ) }
L:1/8
Q:1/4=100
M:6/4
K:Ab
V:1 treble nm="Grand Piano"
V:2 bass 
V:3 bass 
V:1
 [Ec]2 [DB]2 [CA]2 [CE]4 [EA]2 | G2 A2 [DEB]2 [CEA]6 | [FA]2 [=EG]2 [_GB]2 [FA]4 [DF]2 | %3
w: B.~D.~Ackley * * * *|||
 [DF]2 [CE]2 [_C=D]2 [=CE]6 | E2 G2 [GB]2 [Ge]4 [Gd]2 | c4 c2 [Fd]6 | c2 A2 C2 E4 B2 | [CA]12 | %8
w: |||||
 [Fd]2 [DF]2 [FA]2 [Fd]4 [Fd]2 | [Ec]4 [CE]2 [Ec]6 | B2 =A2 B2 c4 B2 | A4 B2 c6 | %12
w: ||||
 [Fd]2 [DF]2 [FA]2 [Fd]4 [Fd]2 | [Ec]4 [CE]2 [Ec]6 | e2 c2 [EA]2 E4 c2 | B6 .[CA]6 |] %16
w: ||||
V:2
 [A,,A,]2 [A,,A,]2 [A,,E,]2 [A,,A,]4 [C,A,]2 | .[E,E]6 z6 | [D,D]2 [D,D]2 [D,D]2 [D,D]4 [D,A,]2 | %3
 [A,,A,]4 [A,,A,]2 [A,,A,]6 | [E,G,]2 [E,B,E]2 [E,E]2 [E,B,]4 [E,E]2 | %5
 [A,EA]4 [A,_G]2[K:bass] [D,A,]6 | [E,A,E]2 [E,A,C]2 [E,A,]2 [E,G,D]4 [E,G,D]2 | [A,,A,]12 | %8
 [D,A,]2 [D,A,]2 [D,D]2 [D,A,]4 [D,A,]2 | [A,,A,]4 [A,,A,]2 [A,,A,]6 | %10
 [E,G,D]2 [E,_G,C]2 [E,=G,D]2 [E,A,E]4 [E,G,D]2 | [F,A,C]4 [E,G,E]2 [A,E]6 | %12
 [D,A,]2 [D,A,]2 [D,D]2 [D,A,]4 [D,A,]2 | [A,,A,]4 [A,,A,]2 [A,,A,]6 | %14
 [A,CA]2 [A,E]2[K:bass] [C,A,]2 [E,A,C]4 [E,A,E]2 | [E,G,D]6 .[A,,E,A,]6 |] %16
V:3
 x12 | B,2 C2 E,2 A,,6 | x12 | x12 | x12 | x6[K:bass] x6 | x12 | x12 | x12 | x12 | x12 | x12 | %12
 x12 | x12 | x4[K:bass] x8 | x12 |] %16

